icons/dimensions-unit-32.svg

<svg xmlns="http://www.w3.org/2000/svg" viewBox="0 0 32 32"><path d="M30 4H8v18h22zm-1 17H9V5h20zm-1 8.191V27H10v2.19L6.942 26.5 10 23.81V26h18v-2.19l3.058 2.69zM4 6v14h2.19L3.5 23.058.81 20H3V6H.81L3.5 2.942 6.19 6z"/><path fill="none" d="M0 0h32v32H0z"/></svg>

<svg id="icons" xmlns="http://www.w3.org/2000/svg" viewBox="0 0 32 32"><defs><style>.cls-1{fill:none;}</style></defs><path d="M30,4H8V22H30ZM29,21H9V5H29Zm-1,8.191V27H10v2.19L6.942,26.5,10,23.81V26H28V23.81l3.058,2.69ZM4,6V20H6.19L3.5,23.058.81,20H3V6H.81L3.5,2.942,6.19,6Z"/><rect class="cls-1" width="32" height="32"/></svg>
